!!!OTL: Georg von Fronspergs Lied ueber Hofgunst. / (Nach 1525.)
!!!ARE: Europa, Mitteleuropa, Deutschland
!!!SCT: A0391
!!!TXL: @@DE
!!!YEM: Copyright 1995, estate of Helmut Schaffrath.
**kern	**text
*M4/2	*
*met(c|)	*
*clefC3	*
*k[]	*
*a:aeo	*
=1	=1
!LO:TX:a:t=aeol.	!
{0e	Mein
=2	=2
1f	fleis
1f	vnd
=3	=3
1e	müh,
1e	ich
=4	=4
1c	nie
1c	hab
=5	=5
1d	geſpart,
2r}	.
{2e	vnd
=6	=6
2.f	al-
4e	.
2d	.
2c	.
=7	=7
2e	.
2f	.
1d	-ʒeit
=8	=8
1c	gwart
2r}	.
{2c	dem
=9	=9
2B	her-
1e	.
2d	-ren
=10	=10
1e	mein
2r	.
2e	ʒum
=11	=11
1g	be-
1f	-ſten
=12	=12
1e	ſein,
2r}	.
{2e	mich
=13	=13
1g	ſchi-
1f	-cken
=14	=14
1e	drein,
2r	.
2d	gnad,
=15	=15
1f	gunſt
1e	ver-
=16	=16
1d	-hofft,
2r}	.
{2d	doch
=17	=17
1c	gmüt
1d	ʒu
=18	=18
1e	hoff,
2r	.
2c	das
=19	=19
*lig	*
2d	wend
2A	.
*Xlig	*
1B	ſich
=20	=20
0A/ll}	offt.
==	==
!!!GTL: Einige historisch-politische Lieder
!!!AGN: Romanze, Ballade, Lied, religioeses Lied
!! Joh. Ott 1534 No. 39 und 40.
!!!ONB: ESAC (Essen Associative Code) Database: ALTDEU
!!!AMT: simple quadruple
!!!AIN: vox
!!!EED: Helmut Schaffrath
!!!EEV: 1.0
!!!RDF**kern: l = terminal long
!!!AMD: Aeolian
!!!URL-scan: https://rosdok.uni-rostock.de/mcrviewer/recordIdentifier/rosdok_ppn738218359/iview2/phys_0561.iview2?x=-948.0634874302073&y=499.13842092175037&scale=0.3669911794666851&rotation=0&layout=singlePageLayout&logicalDiv=log_0014
!!!ENC: Anna Maria Matuszewska
!!!EEV: 2024/14/03
*-	*-
